Hatter-kde/actions/24/gnumeric-format-thousand-separator.svg

<svg xmlns="http://www.w3.org/2000/svg" viewBox="0 0 24 24">
  <defs id="defs3051">
    <style type="text/css" id="current-color-scheme">
      .ColorScheme-Text {
        color:#363636;
      }
      </style>
  </defs>
 <path style="fill:currentColor;fill-opacity:1;stroke:none" 
     d="M 7.5 5 C 5.567003 5 4 6.7909 4 9 L 4 15 C 4 17.2091 5.567003 19 7.5 19 C 9.432997 19 11 17.2091 11 15 L 11 9 C 11 6.7909 9.432997 5 7.5 5 z M 16.5 5 C 14.567003 5 13 6.7909 13 9 L 13 15 C 13 17.2091 14.567003 19 16.5 19 C 18.432997 19 20 17.2091 20 15 L 20 9 C 20 6.7909 18.432997 5 16.5 5 z M 7.5 6 C 8.8807119 6 10 7.3431 10 9 L 10 15 C 10 16.6569 8.8807119 18 7.5 18 C 6.1192881 18 5 16.6569 5 15 L 5 9 C 5 7.3431 6.1192881 6 7.5 6 z M 16.5 6 C 17.880712 6 19 7.3431 19 9 L 19 15 C 19 16.6569 17.880712 18 16.5 18 C 15.119288 18 14 16.6569 14 15 L 14 9 C 14 7.3431 15.119288 6 16.5 6 z M 11 18 L 11 20 L 13 20 L 13 18 L 11 18 z "
     class="ColorScheme-Text"
     />
</svg>

<?xml version="1.0" encoding="UTF-8"?>
<svg viewBox="0 0 24 24" xmlns="http://www.w3.org/2000/svg">
 <defs id="defs3051">
  <style id="current-color-scheme" type="text/css">.ColorScheme-Text {
        color:#363636;
      }</style>
 </defs>
 <path class="ColorScheme-Text" d="m7.5 5c-1.933 0-3.5 1.7909-3.5 4v6c0 2.2091 1.567 4 3.5 4s3.5-1.7909 3.5-4v-6c0-2.2091-1.567-4-3.5-4zm9 0c-1.933 0-3.5 1.7909-3.5 4v6c0 2.2091 1.567 4 3.5 4s3.5-1.7909 3.5-4v-6c0-2.2091-1.567-4-3.5-4zm-9 1c1.3807 0 2.5 1.3431 2.5 3v6c0 1.6569-1.1193 3-2.5 3s-2.5-1.3431-2.5-3v-6c0-1.6569 1.1193-3 2.5-3zm9 0c1.3807 0 2.5 1.3431 2.5 3v6c0 1.6569-1.1193 3-2.5 3s-2.5-1.3431-2.5-3v-6c0-1.6569 1.1193-3 2.5-3zm-5.5 12v2h2v-2h-2z" fill="currentColor"/>
</svg>
